X:32
T:GB/7c/32 You Gentlemen of England
%%VWML:GB-7c-32-0
F:http://www.vwml.org/record/GB/7c/32
T:(Fox-Hunting Song)
C:Mr. Heygate, Rusper, XI.10
P:F.W. J(ekyll)
C:Transcribed by Simon Furey and Lewis Jones
L:1/4
M:5/4
I:linebreak $
K:Daeo
F/G/ | A A A2 G | F D C2 F | G A B A G |[M:3/4] A2 F/G/ |[M:5/4] A A A2 G |$ F D C2 D/E/ | F D E D C |[M:3/4] D2 F/G/ |[M:5/4] A A A2 G | A A A G F |$ G A B A G |[M:3/4] A2 F/G/ | [M:5/4] A A A2 G | F D C2 D/E/ | F D E D C | D4 |]

